carriers/asendia.svg

<svg width="128" height="64" viewBox="0 0 128 64" fill="none" xmlns="http://www.w3.org/2000/svg">
<rect width="128" height="64" rx="6" fill="#FFF200"/>
<path d="M14 39.9286H16.2443C16.7962 39.9286 17.2377 40.0758 17.4952 40.3701C17.716 40.5908 17.8263 40.8484 17.8263 41.1795C17.8263 41.7314 17.532 42.0257 17.2009 42.2097C17.7528 42.4304 18.1207 42.7616 18.1207 43.387C18.1207 44.27 17.3848 44.7115 16.3179 44.7115H14.0368V39.9286H14ZM16.0235 41.8786C16.5018 41.8786 16.7962 41.7314 16.7962 41.3635C16.7962 41.0323 16.5386 40.8484 16.0971 40.8484H15.0302V41.8786H16.0235ZM16.3179 43.8285C16.7962 43.8285 17.0537 43.6446 17.0537 43.3134C17.0537 42.9823 16.7962 42.7983 16.2811 42.7983H15.0302V43.8653H16.3179V43.8285Z" fill="black"/>
<path d="M20.1443 42.8351L18.3047 39.8918H19.5556L20.6962 41.8417L21.8735 39.8918H23.0876L21.248 42.7983V44.7115H20.1811V42.8351H20.1443Z" fill="black"/>
<path d="M25.8103 39.9286H26.8773V43.7917H29.2687V44.7483H25.8103V39.9286Z" fill="black"/>
<path d="M31.7336 39.8918H32.6902L34.7505 44.7483H33.6468L33.2053 43.6813H31.1449L30.7034 44.7483H29.6365L31.7336 39.8918ZM32.8374 42.7247L32.2119 41.1427L31.5864 42.7247H32.8374Z" fill="black"/>
<path d="M37.5835 39.9286H39.5702C40.7108 39.9286 41.4098 40.6276 41.4098 41.5842C41.4098 42.688 40.5268 43.2766 39.4599 43.2766H38.6505V44.7115H37.5835V39.9286ZM39.4967 42.3568C40.0118 42.3568 40.3429 42.0257 40.3429 41.621C40.3429 41.1427 40.0118 40.8852 39.4967 40.8852H38.6872V42.3568H39.4967Z" fill="black"/>
<path d="M41.9985 42.3569C41.9985 40.9588 43.0655 39.855 44.574 39.855C46.0824 39.855 47.1494 40.9588 47.1494 42.3569C47.1494 43.7181 46.0824 44.8587 44.574 44.8587C43.0655 44.8219 41.9985 43.7181 41.9985 42.3569ZM46.0088 42.3569C46.0088 41.5106 45.3834 40.8116 44.5372 40.8116C43.691 40.8116 43.1023 41.4738 43.1023 42.3201C43.1023 43.1663 43.7277 43.8285 44.574 43.8285C45.4202 43.8653 46.0088 43.1663 46.0088 42.3569Z" fill="black"/>
<path d="M47.7014 44.0492L48.3269 43.3134C48.7684 43.6813 49.2099 43.9021 49.7618 43.9021C50.2033 43.9021 50.4608 43.7181 50.4608 43.4606C50.4608 43.203 50.2768 43.0558 49.5042 42.8351C48.5476 42.5776 47.8854 42.32 47.8854 41.3634C47.8854 40.4804 48.5844 39.8918 49.5778 39.8918C50.2768 39.8918 50.8655 40.1125 51.3806 40.5172L50.8287 41.3266C50.3872 41.0323 49.9825 40.8483 49.5778 40.8483C49.1731 40.8483 48.9523 41.0323 48.9523 41.2531C48.9523 41.5842 49.1731 41.6578 49.9825 41.8785C50.9759 42.1361 51.5278 42.504 51.5278 43.3134C51.5278 44.27 50.7919 44.8219 49.7618 44.8219C49.0259 44.8219 48.2901 44.5643 47.7014 44.0492Z" fill="black"/>
<path d="M53.4775 40.8851H52.0059V39.8918H56.0162V40.8851H54.5445V44.7483H53.4775V40.8851Z" fill="black"/>
<path d="M56.8257 39.9286H60.4681V40.8852H57.8926V41.8786H60.1737V42.8351H57.8926V43.8653H60.5049V44.8219H56.8257V39.9286Z" fill="black"/>
<path d="M66.2076 44.27C65.8029 44.6011 65.3614 44.8219 64.8095 44.8219C63.8897 44.8219 63.1907 44.27 63.1907 43.4238C63.1907 42.7984 63.5218 42.3569 64.1473 42.0993C63.9265 41.7682 63.8161 41.4738 63.8161 41.1427C63.8161 40.4805 64.3312 39.855 65.2878 39.855C66.0972 39.855 66.6491 40.4069 66.6491 41.0691C66.6491 41.7314 66.2444 42.0993 65.6189 42.3201L66.2444 42.9455C66.3916 42.688 66.5755 42.4304 66.7227 42.0993L67.4953 42.5408C67.3114 42.8719 67.0906 43.2399 66.8698 43.571L67.5689 44.27L66.7963 44.8219L66.2076 44.27ZM65.6189 43.6814L64.6991 42.7248C64.368 42.9087 64.2576 43.1295 64.2576 43.3502C64.2576 43.6814 64.552 43.9021 64.9199 43.9021C65.1774 43.9389 65.3982 43.8285 65.6189 43.6814ZM65.6925 41.1427C65.6925 40.8484 65.5086 40.6644 65.251 40.6644C64.9567 40.6644 64.7727 40.8484 64.7727 41.1427C64.7727 41.3635 64.8463 41.5106 65.0671 41.7314C65.4718 41.621 65.6925 41.4371 65.6925 41.1427Z" fill="black"/>
<path d="M70.0706 44.0492L70.696 43.3134C71.1375 43.6813 71.579 43.9021 72.1309 43.9021C72.5724 43.9021 72.8299 43.7181 72.8299 43.4606C72.8299 43.203 72.646 43.0558 71.8734 42.8351C70.9168 42.5776 70.2545 42.32 70.2545 41.3634C70.2545 40.4804 70.9536 39.8918 71.9469 39.8918C72.646 39.8918 73.2346 40.1125 73.7497 40.5172L73.1979 41.3266C72.7564 41.0323 72.3516 40.8483 71.9469 40.8483C71.5422 40.8483 71.3215 41.0323 71.3215 41.2531C71.3215 41.5842 71.5422 41.6578 72.3516 41.8785C73.345 42.1361 73.8969 42.504 73.8969 43.3134C73.8969 44.27 73.1611 44.8219 72.1309 44.8219C71.3951 44.8219 70.6592 44.5643 70.0706 44.0492Z" fill="black"/>
<path d="M74.2649 39.9286H75.4054L76.3988 43.2031L77.4658 39.9286H78.3856L79.4525 43.2031L80.4459 39.9286H81.5497L79.894 44.7851H79.0478L77.9441 41.621L76.8403 44.7851H75.9205L74.2649 39.9286Z" fill="black"/>
<path d="M82.4326 39.9286H83.4996V44.7483H82.4326V39.9286Z" fill="black"/>
<path d="M84.3826 44.0492L85.008 43.3134C85.4495 43.6813 85.891 43.9021 86.4429 43.9021C86.8844 43.9021 87.142 43.7181 87.142 43.4606C87.142 43.203 86.958 43.0558 86.1854 42.8351C85.2288 42.5776 84.5665 42.32 84.5665 41.3634C84.5665 40.4804 85.2656 39.8918 86.259 39.8918C86.958 39.8918 87.5467 40.1125 88.0617 40.5172L87.5099 41.3266C87.0684 41.0323 86.6637 40.8483 86.259 40.8483C85.8542 40.8483 85.6335 41.0323 85.6335 41.2531C85.6335 41.5842 85.8542 41.6578 86.6637 41.8785C87.657 42.1361 88.2089 42.504 88.2089 43.3134C88.2089 44.27 87.4731 44.8219 86.4429 44.8219C85.7071 44.8219 84.9712 44.5643 84.3826 44.0492Z" fill="black"/>
<path d="M88.7241 44.0492L89.3496 43.3134C89.7911 43.6813 90.2326 43.9021 90.7845 43.9021C91.226 43.9021 91.4835 43.7181 91.4835 43.4606C91.4835 43.203 91.2995 43.0558 90.5269 42.8351C89.5703 42.5776 88.9081 42.32 88.9081 41.3634C88.9081 40.4804 89.6071 39.8918 90.6005 39.8918C91.2995 39.8918 91.8882 40.1125 92.4033 40.5172L91.8514 41.3266C91.4099 41.0323 91.0052 40.8483 90.6005 40.8483C90.1958 40.8483 89.975 41.0323 89.975 41.2531C89.975 41.5842 90.1958 41.6578 91.0052 41.8785C91.9986 42.1361 92.5505 42.504 92.5505 43.3134C92.5505 44.27 91.8146 44.8219 90.7845 44.8219C90.0486 44.8219 89.3128 44.5643 88.7241 44.0492Z" fill="black"/>
<path d="M95.5674 39.9286H97.5541C98.6947 39.9286 99.3937 40.6276 99.3937 41.5842C99.3937 42.688 98.5107 43.2766 97.4438 43.2766H96.6343V44.7115H95.5674V39.9286ZM97.4806 42.3568C97.9956 42.3568 98.3268 42.0257 98.3268 41.621C98.3268 41.1427 97.9956 40.8852 97.4806 40.8852H96.6711V42.3568H97.4806Z" fill="black"/>
<path d="M99.9456 42.3569C99.9456 40.9588 101.013 39.855 102.521 39.855C104.029 39.855 105.096 40.9588 105.096 42.3569C105.096 43.7181 104.029 44.8587 102.521 44.8587C101.013 44.8587 99.9456 43.7181 99.9456 42.3569ZM103.993 42.3569C103.993 41.5106 103.367 40.8116 102.521 40.8116C101.675 40.8116 101.086 41.4738 101.086 42.3201C101.086 43.1663 101.712 43.8285 102.558 43.8285C103.404 43.8653 103.993 43.1663 103.993 42.3569Z" fill="black"/>
<path d="M105.685 44.0492L106.311 43.3134C106.752 43.6813 107.194 43.9021 107.745 43.9021C108.187 43.9021 108.444 43.7181 108.444 43.4606C108.444 43.203 108.26 43.0558 107.488 42.8351C106.531 42.5776 105.869 42.32 105.869 41.3634C105.869 40.4804 106.568 39.8918 107.561 39.8918C108.26 39.8918 108.849 40.1125 109.364 40.5172L108.812 41.3266C108.371 41.0323 107.966 40.8483 107.561 40.8483C107.157 40.8483 106.936 41.0323 106.936 41.2531C106.936 41.5842 107.157 41.6578 107.966 41.8785C108.96 42.1361 109.511 42.504 109.511 43.3134C109.511 44.27 108.776 44.8219 107.745 44.8219C107.01 44.8219 106.237 44.5643 105.685 44.0492Z" fill="black"/>
<path d="M111.461 40.8851H109.99V39.8918H114V40.8851H112.528V44.7483H111.461V40.8851Z" fill="black"/>
<path d="M29.3054 31.908L31.5865 29.1854C33.0214 30.3259 34.6402 30.9514 36.3694 30.9514C37.4732 30.9514 38.0619 30.5835 38.0619 29.958V29.9212C38.0619 29.2958 37.5836 28.9646 35.5968 28.5231C32.4695 27.8241 30.0413 26.9411 30.0413 23.8874V23.8506C30.0413 21.128 32.212 19.1412 35.744 19.1412C38.2458 19.1412 40.1958 19.8035 41.7778 21.0912L39.7543 23.961C38.393 23.0044 36.9581 22.5261 35.6336 22.5261C34.6402 22.5261 34.1619 22.9308 34.1619 23.4827V23.5195C34.1619 24.1817 34.677 24.476 36.7006 24.9543C40.0854 25.6902 42.1825 26.7939 42.1825 29.5165V29.5533C42.1825 32.5702 39.8279 34.3362 36.2591 34.3362C33.5733 34.3362 31.1082 33.5268 29.3054 31.908Z" fill="black"/>
<path d="M44.6108 19.3988H56.4209V22.8572H48.6211V25.0647H55.6851V28.2656H48.6211V30.5835H56.4945V34.0419H44.574V19.3988H44.6108Z" fill="black"/>
<path d="M59.438 19.3988H63.2275L69.2982 27.1619V19.3988H73.3453V34.0787H69.7765L63.4851 26.0213V34.0787H59.438V19.3988V19.3988Z" fill="black"/>
<path d="M76.6196 19.3988H82.2855C87.5467 19.3988 90.5636 22.4157 90.5636 26.6468V26.6836C90.5636 30.9146 87.4731 34.0787 82.1751 34.0787H76.5828V19.3988H76.6196ZM82.3591 30.4731C84.7873 30.4731 86.4062 29.1118 86.4062 26.7572V26.7204C86.4062 24.3657 84.7873 23.0044 82.3591 23.0044H80.7034V30.4731H82.3591Z" fill="black"/>
<path d="M92.9182 19.3988H97.0021V34.0787H92.9182V19.3988V19.3988Z" fill="black"/>
<path d="M20.8065 19.1412C16.6858 19.1412 14 21.2016 14 25.8741V34.0787H18.0839V30.142H23.4555V34.0787H27.5394V25.8005C27.5394 21.2384 24.9272 19.1412 20.8065 19.1412ZM18.0839 26.9411V25.7638C18.0839 23.7402 19.1508 22.7836 20.7697 22.7836C22.3885 22.7836 23.4555 23.777 23.4555 25.8741V26.9411H18.0839V26.9411Z" fill="black"/>
<path d="M107.267 19.1412C103.146 19.1412 100.461 21.2016 100.461 25.8741V34.0787H104.545V30.142H109.916V34.0787H114V25.8005C113.963 21.2384 111.388 19.1412 107.267 19.1412ZM104.545 26.9411V25.7638C104.545 23.7402 105.612 22.7836 107.23 22.7836C108.849 22.7836 109.916 23.777 109.916 25.8741V26.9411H104.545V26.9411Z" fill="black"/>
</svg>

<svg xmlns="http://www.w3.org/2000/svg" width="128" height="64" fill="none"><rect width="128" height="64" fill="#FFF200" rx="6"/><path fill="#000" d="M14 39.929h2.244c.552 0 .994.147 1.251.441.221.22.331.478.331.81 0 .551-.294.846-.625 1.03.552.22.92.552.92 1.177 0 .883-.736 1.325-1.803 1.325h-2.281v-4.783H14Zm2.023 1.95c.479 0 .773-.148.773-.515 0-.332-.257-.516-.699-.516H15.03v1.03h.993Zm.295 1.95c.478 0 .736-.184.736-.516 0-.33-.258-.515-.773-.515h-1.25v1.067h1.287v-.037ZM20.144 42.835l-1.84-2.943h1.252l1.14 1.95 1.177-1.95h1.215l-1.84 2.906v1.913h-1.067v-1.876h-.037ZM25.81 39.929h1.067v3.863h2.392v.956H25.81v-4.82ZM31.734 39.892h.956l2.06 4.856h-1.103l-.442-1.067h-2.06l-.442 1.067h-1.066l2.097-4.856Zm1.103 2.833-.625-1.582-.626 1.582h1.251ZM37.584 39.929h1.986c1.14 0 1.84.699 1.84 1.655 0 1.104-.883 1.693-1.95 1.693h-.81v1.434h-1.066V39.93Zm1.913 2.428c.515 0 .846-.331.846-.736 0-.478-.331-.736-.846-.736h-.81v1.472h.81ZM41.998 42.357c0-1.398 1.068-2.502 2.576-2.502s2.575 1.104 2.575 2.502c0 1.361-1.067 2.502-2.575 2.502-1.508-.037-2.575-1.14-2.575-2.502Zm4.01 0c0-.846-.625-1.545-1.47-1.545-.847 0-1.436.662-1.436 1.508s.626 1.508 1.472 1.508c.846.037 1.435-.662 1.435-1.471ZM47.701 44.05l.626-.737c.441.368.883.59 1.435.59.441 0 .699-.185.699-.442 0-.258-.184-.405-.957-.626-.956-.257-1.619-.515-1.619-1.472 0-.883.7-1.471 1.693-1.471.699 0 1.287.22 1.803.625l-.552.81c-.442-.295-.846-.479-1.251-.479-.405 0-.626.184-.626.405 0 .331.221.405 1.03.626.994.257 1.546.625 1.546 1.434 0 .957-.736 1.509-1.766 1.509a3.122 3.122 0 0 1-2.06-.773ZM53.477 40.885h-1.471v-.993h4.01v.993h-1.471v3.863h-1.068v-3.863ZM56.826 39.929h3.642v.956h-2.575v.994h2.28v.956h-2.28v1.03h2.612v.957h-3.68v-4.893ZM66.208 44.27c-.405.331-.847.552-1.398.552-.92 0-1.62-.552-1.62-1.398 0-.626.332-1.067.957-1.325-.22-.33-.33-.625-.33-.956 0-.663.514-1.288 1.47-1.288.81 0 1.362.552 1.362 1.214 0 .662-.405 1.03-1.03 1.251l.625.626c.148-.258.332-.516.479-.847l.772.442c-.184.33-.404.699-.625 1.03l.699.699-.773.552-.588-.552Zm-.59-.589-.919-.956c-.331.184-.441.404-.441.625 0 .331.294.552.662.552.257.037.478-.074.699-.22Zm.075-2.538c0-.295-.184-.479-.442-.479-.294 0-.478.184-.478.479 0 .22.073.368.294.588.405-.11.626-.294.626-.588ZM70.07 44.05l.626-.737c.442.368.883.59 1.435.59.441 0 .699-.185.699-.442 0-.258-.184-.405-.957-.626-.956-.257-1.619-.515-1.619-1.472 0-.883.7-1.471 1.693-1.471.699 0 1.288.22 1.803.625l-.552.81c-.442-.295-.846-.479-1.251-.479-.405 0-.626.184-.626.405 0 .331.221.405 1.03.626.994.257 1.546.625 1.546 1.434 0 .957-.736 1.509-1.766 1.509a3.122 3.122 0 0 1-2.06-.773ZM74.265 39.929h1.14l.994 3.274 1.067-3.274h.92l1.067 3.274.993-3.274h1.104l-1.656 4.856h-.846l-1.104-3.164-1.104 3.164h-.92l-1.655-4.856ZM82.433 39.929H83.5v4.82h-1.067v-4.82ZM84.383 44.05l.625-.737c.442.368.883.59 1.435.59.441 0 .699-.185.699-.442 0-.258-.184-.405-.957-.626-.956-.257-1.618-.515-1.618-1.472 0-.883.699-1.471 1.692-1.471.699 0 1.288.22 1.803.625l-.552.81c-.442-.295-.846-.479-1.251-.479-.405 0-.626.184-.626.405 0 .331.221.405 1.03.626.994.257 1.546.625 1.546 1.434 0 .957-.736 1.509-1.766 1.509a3.122 3.122 0 0 1-2.06-.773ZM88.724 44.05l.626-.737c.441.368.883.59 1.434.59.442 0 .7-.185.7-.442 0-.258-.184-.405-.957-.626-.957-.257-1.619-.515-1.619-1.472 0-.883.7-1.471 1.692-1.471.7 0 1.288.22 1.803.625l-.552.81c-.441-.295-.846-.479-1.25-.479-.405 0-.626.184-.626.405 0 .331.22.405 1.03.626.994.257 1.546.625 1.546 1.434 0 .957-.736 1.509-1.767 1.509a3.122 3.122 0 0 1-2.06-.773ZM95.567 39.929h1.987c1.14 0 1.84.699 1.84 1.655 0 1.104-.883 1.693-1.95 1.693h-.81v1.434h-1.067V39.93Zm1.914 2.428c.515 0 .846-.331.846-.736 0-.478-.331-.736-.846-.736h-.81v1.472h.81ZM99.946 42.357c0-1.398 1.067-2.502 2.575-2.502 1.508 0 2.575 1.104 2.575 2.502 0 1.361-1.067 2.502-2.575 2.502-1.508 0-2.575-1.14-2.575-2.502Zm4.047 0c0-.846-.626-1.545-1.472-1.545s-1.435.662-1.435 1.508.626 1.508 1.472 1.508c.846.037 1.435-.662 1.435-1.471ZM105.685 44.05l.626-.737c.441.368.883.59 1.434.59.442 0 .699-.185.699-.442 0-.258-.184-.405-.956-.626-.957-.257-1.619-.515-1.619-1.472 0-.883.699-1.471 1.692-1.471.699 0 1.288.22 1.803.625l-.552.81c-.441-.295-.846-.479-1.251-.479-.404 0-.625.184-.625.405 0 .331.221.405 1.03.626.994.257 1.545.625 1.545 1.434 0 .957-.735 1.509-1.766 1.509-.735 0-1.508-.258-2.06-.773ZM111.461 40.885h-1.471v-.993H114v.993h-1.472v3.863h-1.067v-3.863ZM29.305 31.908l2.282-2.723c1.434 1.14 3.053 1.766 4.782 1.766 1.104 0 1.693-.367 1.693-.993v-.037c0-.625-.478-.956-2.465-1.398-3.128-.699-5.556-1.582-5.556-4.636v-.036c0-2.723 2.171-4.71 5.703-4.71 2.502 0 4.452.663 6.034 1.95l-2.024 2.87c-1.361-.957-2.796-1.435-4.12-1.435-.994 0-1.472.405-1.472.957v.037c0 .662.515.956 2.539 1.434 3.384.736 5.481 1.84 5.481 4.563v.036c0 3.017-2.354 4.783-5.923 4.783-2.686 0-5.15-.81-6.954-2.428ZM44.61 19.399h11.81v3.458h-7.799v2.208h7.064v3.2h-7.064v2.319h7.873v3.458h-11.92V19.399h.037ZM59.438 19.399h3.79l6.07 7.763v-7.763h4.047v14.68h-3.569l-6.29-8.058v8.058h-4.048v-14.68ZM76.62 19.399h5.665c5.262 0 8.279 3.017 8.279 7.248v.037c0 4.23-3.09 7.395-8.389 7.395h-5.592v-14.68h.037Zm5.74 11.074c2.427 0 4.046-1.361 4.046-3.716v-.037c0-2.354-1.619-3.716-4.047-3.716h-1.656v7.47h1.656ZM92.918 19.399h4.084v14.68h-4.084v-14.68ZM20.806 19.141c-4.12 0-6.806 2.06-6.806 6.733v8.205h4.084v-3.937h5.372v3.937h4.083V25.8c0-4.562-2.612-6.659-6.733-6.659Zm-2.722 7.8v-1.177c0-2.024 1.067-2.98 2.686-2.98s2.686.993 2.686 3.09v1.067h-5.372ZM107.267 19.141c-4.121 0-6.806 2.06-6.806 6.733v8.205h4.084v-3.937h5.371v3.937H114V25.8c-.037-4.562-2.612-6.659-6.733-6.659Zm-2.722 7.8v-1.177c0-2.024 1.067-2.98 2.685-2.98 1.619 0 2.686.993 2.686 3.09v1.067h-5.371Z"/></svg>
